assets/svg/software_tg_bot.svg

<svg viewBox="0 0 50 50" xmlns="http://www.w3.org/2000/svg" xmlns:xlink="http://www.w3.org/1999/xlink" width="50.000000" height="50.000000" fill="none">
	<rect id="software_tg_bot 1" width="50.000000" height="50.000000" x="0.000000" y="0.000000" />
	<path id="Форма 1" d="M25 50C38.8071 50 50 38.8071 50 25C50 11.1929 38.8071 0 25 0C11.1929 0 0 11.1929 0 25C0 38.8071 11.1929 50 25 50Z" fill="rgb(82,175,255)" fill-rule="nonzero" />
	<path id="Форма 2" d="M42.6776 7.32244C40.4135 5.05833 37.8212 3.32628 35.0558 2.11218L27.0551 19.6891L30.3103 22.9442L47.8872 14.9436C46.6737 12.1788 44.9417 9.58654 42.6776 7.32244Z" fill="rgb(164,226,241)" fill-rule="nonzero" />
	<path id="Форма 3" d="M2.11218 35.0558C3.32628 37.8212 5.05833 40.4135 7.32244 42.6776C9.58654 44.9417 12.1788 46.6737 14.9442 47.8878L22.9449 30.3109L19.6897 27.0558L2.11218 35.0558Z" fill="rgb(164,226,241)" fill-rule="nonzero" />
	<path id="Форма 4" d="M25 34.6154C30.3104 34.6154 34.6154 30.3104 34.6154 25C34.6154 19.6896 30.3104 15.3846 25 15.3846C19.6896 15.3846 15.3846 19.6896 15.3846 25C15.3846 30.3104 19.6896 34.6154 25 34.6154Z" fill="rgb(0,55,255)" fill-rule="nonzero" />
	<path id="Форма 5" d="M25 28.8462C27.1242 28.8462 28.8462 27.1242 28.8462 25C28.8462 22.8758 27.1242 21.1538 25 21.1538C22.8758 21.1538 21.1539 22.8758 21.1539 25C21.1539 27.1242 22.8758 28.8462 25 28.8462Z" fill="rgb(82,175,255)" fill-rule="nonzero" />
	<path id="Форма 6" d="M50 23L0 23L0 50L50 50L50 23Z" fill="rgb(255,196,0)" fill-rule="nonzero" />
	<g id="Сочетание 1">
		<path id="Форма 9" d="M31.281 43.4119C29.7525 45.6097 27.5071 47 25 47C22.4929 47 20.2475 45.6097 18.719 43.4119L16.6859 35.631C17.0349 30.2362 20.6231 26 25 26C29.3769 26 32.9651 30.2362 33.314 35.631L31.281 43.4119Z" fill="rgb(59,150,210)" fill-rule="nonzero" />
		<path id="Форма 10" d="M28.0342 41.5689L28.0342 46.283C27.099 46.7539 26.0575 47 25 47C23.9427 47 22.901 46.7539 21.9657 46.283L21.9657 41.5689C21.9657 40.8006 22.2854 40.0639 22.8543 39.5208C23.4235 38.9775 24.1952 38.6724 25 38.6724C25.8048 38.6724 26.5765 38.9775 27.1457 39.5208C27.7146 40.0639 28.0342 40.8006 28.0342 41.5689Z" fill="rgb(41,128,185)" fill-rule="nonzero" />
		<path id="Форма 11" d="M30.3099 33.2414C30.3099 36.0409 27.9326 36.1379 25 36.1379C22.0674 36.1379 19.69 36.0409 19.69 33.2414C19.69 30.4418 22.0674 28.1724 25 28.1724C27.9326 28.1724 30.3099 30.4418 30.3099 33.2414Z" fill="rgb(101,220,184)" fill-rule="nonzero" />
		<path id="Форма 12" d="M25 36.5C22.3331 36.5 19.3108 36.5 19.3108 33.2414C19.3108 30.242 21.8579 27.8103 25 27.8103C28.142 27.8103 30.6894 30.242 30.6894 33.2414C30.6894 36.5 27.6668 36.5 25 36.5ZM25 28.5344C22.2781 28.5374 20.0722 30.6432 20.0693 33.2414C20.0693 35.526 21.6483 35.7759 25 35.7759C28.3517 35.7759 29.9307 35.526 29.9307 33.2414C29.9278 30.6432 27.7218 28.5374 25 28.5344Z" fill="rgb(235,239,240)" fill-rule="nonzero" />
		<path id="Форма 13" d="M23.4829 31.4309C23.4829 31.0311 23.1432 30.7068 22.7243 30.7068C22.3054 30.7068 21.9657 31.0311 21.9657 31.4309L21.9657 33.6035C21.9657 34.0034 22.3054 34.3276 22.7243 34.3276C23.1432 34.3276 23.4829 34.0034 23.4829 33.6035L23.4829 31.4309Z" fill="rgb(70,79,93)" fill-rule="nonzero" />
		<path id="Форма 14" d="M28.0342 31.4309C28.0342 31.0311 27.6948 30.7068 27.2757 30.7068C26.8568 30.7068 26.5171 31.0311 26.5171 31.4309L26.5171 33.6035C26.5171 34.0034 26.8568 34.3276 27.2757 34.3276C27.6948 34.3276 28.0342 34.0034 28.0342 33.6035L28.0342 31.4309Z" fill="rgb(70,79,93)" fill-rule="nonzero" />
		<path id="Форма 15" d="M19.5572 40.8267L19.5457 40.9027C19.397 41.7726 19.1185 42.6175 18.719 43.4119C17.9831 44.8238 16.94 45.6893 15.9463 45.5335C14.5431 45.3199 13.7465 43.1259 14.0728 40.5371L19.5572 40.8267ZM35.9272 40.5371C36.2535 43.1259 35.4571 45.3199 34.0537 45.5335C33.06 45.6893 32.0169 44.8238 31.281 43.4119C30.8815 42.6175 30.603 41.7726 30.4543 40.9027L30.4428 40.8267L35.9272 40.5371Z" fill="rgb(40,86,128)" fill-rule="nonzero" />
		<path id="Форма 16" d="M19.69 39.3965C19.6817 39.8757 19.6375 40.3537 19.5572 40.8267C18.6945 41.3563 17.6801 41.6159 16.6556 41.5689C16.1722 41.5882 15.6902 41.5059 15.2438 41.3276C14.7974 41.1493 14.3977 40.8794 14.0728 40.5371C14.0917 40.3815 14.1183 40.222 14.1447 40.0626C14.524 37.9266 15.5558 36.214 16.6859 35.631C17.0052 35.4529 17.3781 35.3827 17.7441 35.4319C18.9579 35.6203 19.7165 37.2785 19.69 39.3965ZM35.9272 40.5371C35.6023 40.8794 35.2025 41.1493 34.7562 41.3276C34.3098 41.5059 33.8278 41.5882 33.3444 41.5689C32.3199 41.6159 31.3054 41.3563 30.4428 40.8267C30.3625 40.3537 30.3183 39.8757 30.3099 39.3965C30.2835 37.2785 31.0421 35.6203 32.2558 35.4319C32.6219 35.3827 32.9948 35.4529 33.3141 35.631C34.4442 36.214 35.476 37.9266 35.8553 40.0626C35.8819 40.222 35.9083 40.3815 35.9272 40.5371Z" fill="rgb(41,128,185)" fill-rule="nonzero" />
	</g>
</svg>

<svg xmlns="http://www.w3.org/2000/svg" width="50" height="50" fill="none" viewBox="0 0 50 50"><path d="M0 0h50v50H0z"/><path fill="#52afff" d="M25 50c13.807 0 25-11.193 25-25S38.807 0 25 0 0 11.193 0 25s11.193 25 25 25"/><path fill="#a4e2f1" d="M42.678 7.322a24.9 24.9 0 0 0-7.622-5.21l-8 17.577 3.254 3.255 17.577-8a24.9 24.9 0 0 0-5.21-7.622M2.112 35.056a24.9 24.9 0 0 0 5.21 7.622 24.9 24.9 0 0 0 7.622 5.21l8-17.577-3.254-3.255z"/><path fill="#0037ff" d="M25 34.615a9.615 9.615 0 1 0 0-19.23 9.615 9.615 0 0 0 0 19.23"/><path fill="#52afff" d="M25 28.846a3.846 3.846 0 1 0 0-7.692 3.846 3.846 0 0 0 0 7.692"/><path fill="#ffc400" d="M50 23H0v27h50z"/><path fill="#3b96d2" d="M31.281 43.412C29.753 45.61 27.507 47 25 47s-4.753-1.39-6.281-3.588l-2.033-7.781C17.035 30.236 20.623 26 25 26s7.965 4.236 8.314 9.631z"/><path fill="#2980b9" d="M28.034 41.569v4.714A6.75 6.75 0 0 1 25 47a6.75 6.75 0 0 1-3.034-.717v-4.714c0-.768.32-1.505.888-2.048A3.1 3.1 0 0 1 25 38.672a3.1 3.1 0 0 1 2.146.849c.569.543.888 1.28.888 2.048"/><path fill="#65dcb8" d="M30.31 33.241c0 2.8-2.377 2.897-5.31 2.897s-5.31-.097-5.31-2.897 2.377-5.069 5.31-5.069 5.31 2.27 5.31 5.07"/><path fill="#ebeff0" d="M25 36.5c-2.667 0-5.69 0-5.69-3.259 0-2.999 2.548-5.43 5.69-5.43s5.69 2.431 5.69 5.43c0 3.259-3.023 3.259-5.69 3.259m0-7.966c-2.722.003-4.928 2.11-4.93 4.707 0 2.285 1.578 2.535 4.93 2.535s4.93-.25 4.93-2.535c-.002-2.598-2.208-4.704-4.93-4.707"/><path fill="#464f5d" d="M23.483 31.43c0-.399-.34-.723-.759-.723s-.758.324-.758.724v2.172c0 .4.34.725.758.725.42 0 .759-.325.759-.725zM28.034 31.43c0-.399-.34-.723-.758-.723-.42 0-.759.324-.759.724v2.172c0 .4.34.725.759.725s.758-.325.758-.725z"/><path fill="#285680" d="m19.557 40.827-.011.076a9 9 0 0 1-.827 2.509c-.736 1.412-1.779 2.277-2.773 2.121-1.403-.213-2.2-2.407-1.873-4.996zm16.37-.29c.327 2.589-.47 4.783-1.873 4.996-.994.156-2.037-.71-2.773-2.121a9 9 0 0 1-.827-2.51l-.011-.075z"/><path fill="#2980b9" d="M19.69 39.397a9.5 9.5 0 0 1-.133 1.43c-.862.53-1.877.789-2.901.742a3.4 3.4 0 0 1-1.412-.241 3.3 3.3 0 0 1-1.171-.79q.03-.235.072-.475c.379-2.136 1.41-3.849 2.54-4.432a1.7 1.7 0 0 1 1.06-.2c1.213.19 1.971 1.848 1.945 3.966m16.237 1.14a3.3 3.3 0 0 1-1.17.79 3.4 3.4 0 0 1-1.413.242 5.1 5.1 0 0 1-2.901-.742 9.5 9.5 0 0 1-.133-1.43c-.026-2.118.732-3.777 1.946-3.965a1.7 1.7 0 0 1 1.058.199c1.13.583 2.162 2.296 2.541 4.432q.042.24.072.474"/></svg>
